public/img/imgComponents/StartVoting/goal.svg

<?xml version="1.0" encoding="iso-8859-1"?>
<!-- Generator: Adobe Illustrator 19.0.0, SVG Export Plug-In . SVG Version: 6.00 Build 0)  -->
<svg version="1.1" id="Capa_1" xmlns="http://www.w3.org/2000/svg" xmlns:xlink="http://www.w3.org/1999/xlink" x="0px" y="0px"
	 viewBox="0 0 511.999 511.999" style="enable-background:new 0 0 511.999 511.999;" xml:space="preserve">
<g>
	<g>
		<path d="M448.258,379.897c-1.869-1.86-4.439-2.929-7.068-2.929c-2.639,0-5.209,1.07-7.068,2.929
			c-1.87,1.859-2.929,4.439-2.929,7.068s1.06,5.209,2.929,7.068c1.859,1.859,4.429,2.929,7.068,2.929
			c2.629,0,5.209-1.07,7.068-2.929c1.859-1.86,2.929-4.439,2.929-7.068S450.118,381.756,448.258,379.897z"/>
	</g>
</g>
<g>
	<g>
		<path d="M505.679,492.69l-54.495-22.419V425.41c0-5.522-4.476-9.997-9.997-9.997s-9.997,4.476-9.997,9.997v36.635l-27.993-11.516
			V344.31c0-5.522-4.476-9.997-9.997-9.997s-9.997,4.476-9.997,9.997v97.993l-27.993-11.516V324.979h75.981v21.009
			c0,5.522,4.476,9.997,9.997,9.997s9.997-4.476,9.997-9.997v-30.889c0-0.019,0.003-0.037,0.003-0.055
			c0-0.021,0.003-0.041,0.003-0.062c0,0,0,0,0-0.001v-0.001l-0.012-74.007l57.276-101.063c2.319-4.093,3.545-8.742,3.545-13.446
			c0-11.899-7.286-22.042-18.562-25.842c-11.221-3.782-23.098-0.169-30.308,9.201l-15.89,19.588
			c0.045-0.383,0.073-0.771,0.073-1.166v-4.493c0-29.767-24.219-53.986-53.986-53.986c-4.203,0-8.29,0.499-12.22,1.412
			L355.568,46.61l29.482-29.481c2.859-2.859,3.714-7.16,2.166-10.895c-1.548-3.736-5.193-6.171-9.237-6.171h-89.05
			c-5.522,0-9.997,4.476-9.997,9.997v20.059h-22.866c-5.522,0-9.997,4.476-9.997,9.997v137.468c-2.961-1.01-6.13-1.566-9.43-1.566
			h-75.932c7.549-9.288,12.084-21.118,12.084-33.991v-12.044c0-0.294-0.019-0.583-0.044-0.871c0.025-0.288,0.044-0.577,0.044-0.869
			v-4.493c0-29.767-24.218-53.986-53.986-53.986s-53.986,24.218-53.986,53.986v4.493c0,0.294,0.019,0.582,0.044,0.87
			c-0.011,0.129-0.014,0.261-0.02,0.392l-15.967-19.684c-7.21-9.369-19.087-12.98-30.308-9.201
			C7.29,104.421,0.004,114.564,0.004,126.464c0,4.704,1.226,9.353,3.545,13.446l57.275,101.062l-0.006,229.271L6.2,492.689
			c-5.107,2.099-7.545,7.94-5.447,13.048c1.588,3.864,5.318,6.199,9.251,6.199c1.266,0,2.553-0.242,3.796-0.753l242.263-99.565
			l242.009,99.563c5.108,2.101,10.949-0.336,13.05-5.442C513.222,500.634,510.785,494.791,505.679,492.69z M393.326,89.76
			c16.87,0,30.908,12.352,33.547,28.487h-11.065c-11.37,0-22.078-4.998-29.381-13.711c-1.938-2.312-4.763-3.577-7.665-3.577
			c-1.144,0-2.297,0.196-3.414,0.603c-3.951,1.437-6.581,5.192-6.581,9.396c0,3.709-2.903,6.714-6.61,6.842l-2.313,0.08
			C362.632,101.924,376.584,89.76,393.326,89.76z M359.208,137.907l3.638-0.126c8.07-0.278,15.168-4.035,19.886-9.812
			c9.623,6.633,21.108,10.271,33.076,10.271h11.383v3.786c0,18.743-15.248,33.991-33.991,33.991s-33.991-15.248-33.991-33.991
			V137.907z M400.545,196.013l-7.413,23.805l-7.409-23.805H400.545z M353.844,20.058L334.221,39.68
			c-1.898,1.898-2.953,4.481-2.927,7.166c0.026,2.685,1.131,5.247,3.066,7.108l18.806,18.09h-54.238V20.058H353.844z
			 M266.063,120.098h55.712c5.522,0,9.997-4.476,9.997-9.997V92.04h17.902c-6.491,8.911-10.334,19.868-10.334,31.711v4.493
			c0,0.056,0.008,0.112,0.008,0.168c-0.081,0.513-0.135,1.035-0.135,1.572v12.044c0,12.874,4.536,24.704,12.084,33.991h-75.932
			c-3.252,0-6.377,0.541-9.303,1.523V120.098z M266.063,50.114h12.87v31.928c0,5.522,4.476,9.997,9.997,9.997h22.847v8.062h-45.714
			V50.114z M118.804,89.76c16.741,0,30.693,12.164,33.484,28.118l-2.313-0.08c-3.707-0.128-6.61-3.133-6.61-6.842
			c0-4.204-2.63-7.959-6.581-9.396c-3.95-1.436-8.378-0.248-11.079,2.974c-7.302,8.715-18.01,13.713-29.381,13.713H85.257
			C87.896,102.113,101.935,89.76,118.804,89.76z M84.813,138.241h11.51c11.968,0,23.453-3.639,33.076-10.271
			c4.718,5.777,11.816,9.534,19.886,9.812l3.511,0.121v4.125c0,18.743-15.249,33.991-33.991,33.991
			c-18.743,0-33.991-15.248-33.991-33.991V138.241z M126.216,196.013l-7.409,23.805l-7.413-23.805H126.216z M156.794,430.799
			l-27.993,11.504V344.31c0-5.522-4.476-9.997-9.997-9.997s-9.997,4.476-9.997,9.997v106.21l-27.993,11.504V324.979h75.981V430.799z
			 M156.787,235.005l0.011,69.978h-75.99l0.011-66.645c0-1.729-0.448-3.427-1.3-4.931L20.944,130.049
			c-0.619-1.092-0.946-2.332-0.946-3.586c0-4.849,3.79-6.502,4.952-6.894c1.162-0.392,5.18-1.369,8.113,2.491
			c0.064,0.084,0.129,0.167,0.195,0.249l55.577,68.514l20.428,65.599c1.302,4.179,5.17,7.025,9.546,7.025
			c4.377,0,8.245-2.847,9.546-7.026l18.803-60.408h89.48c5.13,0,9.303,4.173,9.303,9.303c0,4.586-3.422,8.544-7.96,9.206
			l-72.637,10.589C160.429,225.827,156.786,230.041,156.787,235.005z M335.211,315.043c0,0.022,0.003,0.043,0.003,0.065v107.453
			l-75.345-30.997c-2.436-1.003-5.169-1.003-7.605-0.002l-75.476,31.019V315.108c0.001-0.043-0.004-71.459-0.004-71.459l64.08-9.342
			c1.795-0.262,3.534-0.688,5.204-1.26v87.922c0,5.522,4.476,9.997,9.997,9.997c5.522,0,9.997-4.476,9.997-9.997v-87.88
			c1.631,0.551,3.327,0.964,5.077,1.219l64.08,9.342l-0.011,71.33v0.001C335.208,315.002,335.211,315.022,335.211,315.043z
			 M346.659,225.11l-72.637-10.589c-4.538-0.662-7.96-4.619-7.96-9.206c0-5.13,4.173-9.303,9.303-9.303h89.417l18.803,60.408
			c1.301,4.179,5.169,7.025,9.546,7.026c4.376,0,8.244-2.846,9.546-7.025l20.389-65.472l55.679-68.64
			c0.066-0.082,0.131-0.165,0.195-0.249c2.934-3.86,6.952-2.883,8.113-2.491c1.162,0.392,4.952,2.045,4.952,6.894
			c0,1.255-0.327,2.495-0.946,3.586l-58.576,103.358c-0.852,1.504-1.3,3.203-1.3,4.931l0.011,66.645h-75.99l0.011-69.978
			C355.216,230.04,351.573,225.826,346.659,225.11z"/>
	</g>
</g>
<g>
	<g>
		<path d="M263.136,354.903c-1.859-1.86-4.44-2.929-7.068-2.929c-2.639,0-5.209,1.07-7.068,2.929
			c-1.87,1.859-2.929,4.439-2.929,7.068s1.06,5.209,2.929,7.068c1.86,1.859,4.439,2.929,7.068,2.929s5.209-1.07,7.068-2.929
			c1.86-1.86,2.929-4.439,2.929-7.068S264.996,356.762,263.136,354.903z"/>
	</g>
</g>
<g>
</g>
<g>
</g>
<g>
</g>
<g>
</g>
<g>
</g>
<g>
</g>
<g>
</g>
<g>
</g>
<g>
</g>
<g>
</g>
<g>
</g>
<g>
</g>
<g>
</g>
<g>
</g>
<g>
</g>
</svg>

<svg width="512" height="512" viewBox="0 0 512 512" fill="none" xmlns="http://www.w3.org/2000/svg">
<g clip-path="url(#clip0)">
<path d="M448.258 379.897C446.389 378.037 443.819 376.968 441.19 376.968C438.551 376.968 435.981 378.038 434.122 379.897C432.252 381.756 431.193 384.336 431.193 386.965C431.193 389.594 432.253 392.174 434.122 394.033C435.981 395.892 438.551 396.962 441.19 396.962C443.819 396.962 446.399 395.892 448.258 394.033C450.117 392.173 451.187 389.594 451.187 386.965C451.187 384.336 450.118 381.756 448.258 379.897Z" fill="#FFB900"/>
<path d="M505.679 492.69L451.184 470.271V425.41C451.184 419.888 446.708 415.413 441.187 415.413C435.666 415.413 431.19 419.889 431.19 425.41V462.045L403.197 450.529V344.31C403.197 338.788 398.721 334.313 393.2 334.313C387.679 334.313 383.203 338.789 383.203 344.31V442.303L355.21 430.787V324.979H431.191V345.988C431.191 351.51 435.667 355.985 441.188 355.985C446.709 355.985 451.185 351.509 451.185 345.988V315.099C451.185 315.08 451.188 315.062 451.188 315.044C451.188 315.023 451.191 315.003 451.191 314.982C451.191 314.982 451.191 314.982 451.191 314.981V314.98L451.179 240.973L508.455 139.91C510.774 135.817 512 131.168 512 126.464C512 114.565 504.714 104.422 493.438 100.622C482.217 96.84 470.34 100.453 463.13 109.823L447.24 129.411C447.285 129.028 447.313 128.64 447.313 128.245V123.752C447.313 93.985 423.094 69.766 393.327 69.766C389.124 69.766 385.037 70.265 381.107 71.178L355.568 46.61L385.05 17.129C387.909 14.27 388.764 9.969 387.216 6.234C385.668 2.498 382.023 0.0629997 377.979 0.0629997H288.929C283.407 0.0629997 278.932 4.539 278.932 10.06V30.119H256.066C250.544 30.119 246.069 34.595 246.069 40.116V177.584C243.108 176.574 239.939 176.018 236.639 176.018H160.707C168.256 166.73 172.791 154.9 172.791 142.027V129.983C172.791 129.689 172.772 129.4 172.747 129.112C172.772 128.824 172.791 128.535 172.791 128.243V123.75C172.791 93.983 148.573 69.764 118.805 69.764C89.0372 69.764 64.8192 93.982 64.8192 123.75V128.243C64.8192 128.537 64.8382 128.825 64.8632 129.113C64.8522 129.242 64.8492 129.374 64.8432 129.505L48.8762 109.821C41.6662 100.452 29.7892 96.841 18.5682 100.62C7.29018 104.421 0.00418349 114.564 0.00418349 126.464C0.00418349 131.168 1.23018 135.817 3.54918 139.91L60.8242 240.972L60.8182 470.243L6.20018 492.689C1.09318 494.788 -1.34482 500.629 0.753184 505.737C2.34118 509.601 6.07118 511.936 10.0042 511.936C11.2702 511.936 12.5572 511.694 13.8002 511.183L256.063 411.618L498.072 511.181C503.18 513.282 509.021 510.845 511.122 505.739C513.222 500.634 510.785 494.791 505.679 492.69ZM393.326 89.76C410.196 89.76 424.234 102.112 426.873 118.247H415.808C404.438 118.247 393.73 113.249 386.427 104.536C384.489 102.224 381.664 100.959 378.762 100.959C377.618 100.959 376.465 101.155 375.348 101.562C371.397 102.999 368.767 106.754 368.767 110.958C368.767 114.667 365.864 117.672 362.157 117.8L359.844 117.88C362.632 101.924 376.584 89.76 393.326 89.76ZM359.208 137.907L362.846 137.781C370.916 137.503 378.014 133.746 382.732 127.969C392.355 134.602 403.84 138.24 415.808 138.24H427.191V142.026C427.191 160.769 411.943 176.017 393.2 176.017C374.457 176.017 359.209 160.769 359.209 142.026V137.907H359.208ZM400.545 196.013L393.132 219.818L385.723 196.013H400.545ZM353.844 20.058L334.221 39.68C332.323 41.578 331.268 44.161 331.294 46.846C331.32 49.531 332.425 52.093 334.36 53.954L353.166 72.044H298.928V20.058H353.844ZM266.063 120.098H321.775C327.297 120.098 331.772 115.622 331.772 110.101V92.04H349.674C343.183 100.951 339.34 111.908 339.34 123.751V128.244C339.34 128.3 339.348 128.356 339.348 128.412C339.267 128.925 339.213 129.447 339.213 129.984V142.028C339.213 154.902 343.749 166.732 351.297 176.019H275.365C272.113 176.019 268.988 176.56 266.062 177.542V120.098H266.063ZM266.063 50.114H278.933V82.042C278.933 87.564 283.409 92.039 288.93 92.039H311.777V100.101H266.063V50.114ZM118.804 89.76C135.545 89.76 149.497 101.924 152.288 117.878L149.975 117.798C146.268 117.67 143.365 114.665 143.365 110.956C143.365 106.752 140.735 102.997 136.784 101.56C132.834 100.124 128.406 101.312 125.705 104.534C118.403 113.249 107.695 118.247 96.3242 118.247H85.2572C87.8962 102.113 101.935 89.76 118.804 89.76ZM84.8132 138.241H96.3232C108.291 138.241 119.776 134.602 129.399 127.97C134.117 133.747 141.215 137.504 149.285 137.782L152.796 137.903V142.028C152.796 160.771 137.547 176.019 118.805 176.019C100.062 176.019 84.8142 160.771 84.8142 142.028V138.241H84.8132ZM126.216 196.013L118.807 219.818L111.394 196.013H126.216ZM156.794 430.799L128.801 442.303V344.31C128.801 338.788 124.325 334.313 118.804 334.313C113.283 334.313 108.807 338.789 108.807 344.31V450.52L80.8142 462.024V324.979H156.795V430.799H156.794ZM156.787 235.005L156.798 304.983H80.8082L80.8192 238.338C80.8192 236.609 80.3712 234.911 79.5192 233.407L20.9442 130.049C20.3252 128.957 19.9982 127.717 19.9982 126.463C19.9982 121.614 23.7882 119.961 24.9502 119.569C26.1122 119.177 30.1302 118.2 33.0632 122.06C33.1272 122.144 33.1922 122.227 33.2582 122.309L88.8352 190.823L109.263 256.422C110.565 260.601 114.433 263.447 118.809 263.447C123.186 263.447 127.054 260.6 128.355 256.421L147.158 196.013H236.638C241.768 196.013 245.941 200.186 245.941 205.316C245.941 209.902 242.519 213.86 237.981 214.522L165.344 225.111C160.429 225.827 156.786 230.041 156.787 235.005ZM335.211 315.043C335.211 315.065 335.214 315.086 335.214 315.108V422.561L259.869 391.564C257.433 390.561 254.7 390.561 252.264 391.562L176.788 422.581V315.108C176.789 315.065 176.784 243.649 176.784 243.649L240.864 234.307C242.659 234.045 244.398 233.619 246.068 233.047V320.969C246.068 326.491 250.544 330.966 256.065 330.966C261.587 330.966 266.062 326.49 266.062 320.969V233.089C267.693 233.64 269.389 234.053 271.139 234.308L335.219 243.65L335.208 314.98V314.981C335.208 315.002 335.211 315.022 335.211 315.043ZM346.659 225.11L274.022 214.521C269.484 213.859 266.062 209.902 266.062 205.315C266.062 200.185 270.235 196.012 275.365 196.012H364.782L383.585 256.42C384.886 260.599 388.754 263.445 393.131 263.446C397.507 263.446 401.375 260.6 402.677 256.421L423.066 190.949L478.745 122.309C478.811 122.227 478.876 122.144 478.94 122.06C481.874 118.2 485.892 119.177 487.053 119.569C488.215 119.961 492.005 121.614 492.005 126.463C492.005 127.718 491.678 128.958 491.059 130.049L432.483 233.407C431.631 234.911 431.183 236.61 431.183 238.338L431.194 304.983H355.204L355.215 235.005C355.216 230.04 351.573 225.826 346.659 225.11Z" fill="#FFB900"/>
<path d="M263.136 354.903C261.277 353.043 258.696 351.974 256.068 351.974C253.429 351.974 250.859 353.044 249 354.903C247.13 356.762 246.071 359.342 246.071 361.971C246.071 364.6 247.131 367.18 249 369.039C250.86 370.898 253.439 371.968 256.068 371.968C258.697 371.968 261.277 370.898 263.136 369.039C264.996 367.179 266.065 364.6 266.065 361.971C266.065 359.342 264.996 356.762 263.136 354.903Z" fill="#FFB900"/>
</g>
<defs>
<clipPath id="clip0">
<rect width="511.999" height="511.999" fill="white"/>
</clipPath>
</defs>
</svg>
